src/assets/images/why2.svg

<svg width="76" height="90" viewBox="0 0 76 90" fill="none" xmlns="http://www.w3.org/2000/svg">
<path d="M5.5 90V71.875L37.125 42.625C39.125 40.7083 40.5833 39.0417 41.5 37.625C42.5 36.2083 43.1667 34.9583 43.5 33.875C43.8333 32.7083 44 31.625 44 30.625C44 28.4583 43.2917 26.7917 41.875 25.625C40.4583 24.375 38.3333 23.75 35.5 23.75C32.9167 23.75 30.4583 24.4583 28.125 25.875C25.7917 27.2083 23.9583 29.2083 22.625 31.875L0.375 20.75C3.54167 14.75 8.29167 9.875 14.625 6.125C20.9583 2.375 28.8333 0.499997 38.25 0.499997C45.1667 0.499997 51.2917 1.625 56.625 3.875C61.9583 6.12499 66.125 9.29166 69.125 13.375C72.125 17.4583 73.625 22.2917 73.625 27.875C73.625 30.7083 73.25 33.5417 72.5 36.375C71.8333 39.2083 70.4167 42.2083 68.25 45.375C66.0833 48.4583 62.875 51.9167 58.625 55.75L34.875 77.375L30.25 67.125H75.625V90H5.5Z" fill="url(#paint0_linear_244_18)"/>
<defs>
<linearGradient id="paint0_linear_244_18" x1="40.5" y1="18" x2="40.5" y2="73" gradientUnits="userSpaceOnUse">
<stop stop-color="#FC6E6E"/>
<stop offset="0.427083" stop-color="#F99B9B"/>
<stop offset="1" stop-color="#E26A6A"/>
</linearGradient>
</defs>
</svg>

<?xml version="1.0" encoding="utf-8"?>
<!-- Generator: Adobe Illustrator 26.0.0, SVG Export Plug-In . SVG Version: 6.00 Build 0)  -->
<svg version="1.1" id="Layer_1" xmlns="http://www.w3.org/2000/svg" xmlns:xlink="http://www.w3.org/1999/xlink" x="0px" y="0px"
	 viewBox="0 0 76 90" style="enable-background:new 0 0 76 90;" xml:space="preserve">
<style type="text/css">
	.st0{fill:url(#SVGID_1_);}
</style>
<linearGradient id="SVGID_1_" gradientUnits="userSpaceOnUse" x1="38" y1="74" x2="38" y2="19" gradientTransform="matrix(1 0 0 -1 0 92)">
	<stop  offset="0" style="stop-color:#0C5369"/>
	<stop  offset="9.667943e-02" style="stop-color:#145C6D"/>
	<stop  offset="0.2547" style="stop-color:#297479"/>
	<stop  offset="0.4533" style="stop-color:#4C9C8C"/>
	<stop  offset="0.5025" style="stop-color:#56A791"/>
	<stop  offset="0.621" style="stop-color:#3D8B84"/>
	<stop  offset="0.7754" style="stop-color:#226C75"/>
	<stop  offset="0.9072" style="stop-color:#125A6C"/>
	<stop  offset="1" style="stop-color:#0C5369"/>
</linearGradient>
<path class="st0" d="M5.5,90V71.9l31.6-29.2c2-1.9,3.5-3.6,4.4-5c1-1.4,1.7-2.7,2-3.8c0.3-1.2,0.5-2.2,0.5-3.2c0-2.2-0.7-3.8-2.1-5
	c-1.4-1.2-3.5-1.9-6.4-1.9c-2.6,0-5,0.7-7.4,2.1c-2.3,1.3-4.2,3.3-5.5,6L0.4,20.8c3.2-6,7.9-10.9,14.2-14.6
	C21,2.4,28.8,0.5,38.2,0.5c6.9,0,13,1.1,18.4,3.4c5.3,2.2,9.5,5.4,12.5,9.5c3,4.1,4.5,8.9,4.5,14.5c0,2.8-0.4,5.7-1.1,8.5
	c-0.7,2.8-2.1,5.8-4.2,9c-2.2,3.1-5.4,6.5-9.6,10.4L34.9,77.4l-4.6-10.2h45.4V90H5.5z"/>
</svg>
